dist/images/icon/clinic.svg

<svg width="53" height="50" viewBox="0 0 53 50" fill="none" xmlns="http://www.w3.org/2000/svg">
<path fill-rule="evenodd" clip-rule="evenodd" d="M14.5358 12.4837C14.5975 11.7447 14.7958 11.0427 15.1065 10.4004H7.00439V12.9854L11.2962 16.1423V43.7658H41.3392V16.179L46.1675 13.022V10.4004H26.7992C27.11 11.0427 27.3083 11.7447 27.37 12.4837H43.1492L39.1932 15.0704V41.6825H13.4422V15.1071L9.87581 12.4837H14.5358Z" fill="#202020"/>
<path fill-rule="evenodd" clip-rule="evenodd" d="M22.0264 27.0833H17.7345V31.25H22.0264V27.0833ZM15.5886 25V33.3333H24.1723V25H15.5886Z" fill="#202020"/>
<path fill-rule="evenodd" clip-rule="evenodd" d="M34.9011 27.0833H28.4633V41.6667H34.9011V27.0833ZM26.3174 25V43.75H37.047V25H26.3174Z" fill="#202020"/>
<path d="M7.00439 42.7087C7.00439 43.284 7.48478 43.7503 8.07736 43.7503H44.558C45.1506 43.7503 45.631 43.284 45.631 42.7087C45.631 42.1333 45.1506 41.667 44.558 41.667H8.07736C7.48478 41.667 7.00439 42.1333 7.00439 42.7087Z" fill="#202020"/>
<path fill-rule="evenodd" clip-rule="evenodd" d="M16.6602 16.6663H11.2954V14.583H16.6602V16.6663Z" fill="#202020"/>
<path fill-rule="evenodd" clip-rule="evenodd" d="M40.8031 16.6663H25.2451V14.583H40.8031V16.6663Z" fill="#202020"/>
<path fill-rule="evenodd" clip-rule="evenodd" d="M27.3897 12.5C27.3897 15.9518 24.5074 18.75 20.9519 18.75C17.3965 18.75 14.5142 15.9518 14.5142 12.5C14.5142 9.04822 17.3965 6.25 20.9519 6.25C24.5074 6.25 27.3897 9.04822 27.3897 12.5ZM22.0249 9.375V11.4583H24.1708V13.5417H22.0249V15.625H19.879V13.5417H17.733V11.4583H19.879V9.375H22.0249Z" fill="#202020"/>
</svg>

<svg width="53" height="50" fill="none" xmlns="http://www.w3.org/2000/svg"><path fill-rule="evenodd" clip-rule="evenodd" d="M14.536 12.484c.062-.74.26-1.441.57-2.084H7.005v2.585l4.292 3.157v27.624H41.34V16.179l4.828-3.157V10.4H26.8a5.9 5.9 0 01.571 2.084h15.78l-3.957 2.586v26.612h-25.75V15.107l-3.567-2.623h4.66z" fill="#202020"/><path fill-rule="evenodd" clip-rule="evenodd" d="M22.026 27.083h-4.291v4.167h4.291v-4.167zM15.59 25v8.333h8.583V25H15.59zm19.311 2.083h-6.438v14.584h6.438V27.083zM26.317 25v18.75h10.73V25h-10.73z" fill="#202020"/><path d="M7.004 42.709c0 .575.48 1.041 1.073 1.041h36.481c.593 0 1.073-.466 1.073-1.041 0-.576-.48-1.042-1.073-1.042H8.078c-.593 0-1.074.466-1.074 1.042z" fill="#202020"/><path fill-rule="evenodd" clip-rule="evenodd" d="M16.66 16.666h-5.365v-2.083h5.365v2.083zm24.143 0H25.245v-2.083h15.558v2.083z" fill="#202020"/><path fill-rule="evenodd" clip-rule="evenodd" d="M27.39 12.5c0 3.452-2.883 6.25-6.438 6.25-3.556 0-6.438-2.798-6.438-6.25s2.883-6.25 6.438-6.25c3.555 0 6.438 2.798 6.438 6.25zm-5.365-3.125v2.083h2.146v2.084h-2.146v2.083h-2.146v-2.083h-2.146v-2.084h2.146V9.375h2.146z" fill="#202020"/></svg>
